static/images/logo_footer.svg

<svg width="126" height="55" viewBox="0 0 126 55" fill="none" xmlns="http://www.w3.org/2000/svg">
<path d="M57.5878 28.7957H57.1929C57.1436 28.7957 57.0942 28.7957 57.0448 28.7957C57.0448 28.7466 57.0942 28.5504 57.2423 28.158L59.6115 22.3205H63.8565L66.0776 27.8146V27.8636C66.127 27.9618 66.127 28.0108 66.1763 28.0599C66.3738 28.5014 66.3738 28.6976 66.3738 28.7466C66.3738 28.7466 66.3244 28.7466 66.2257 28.7466H65.8308V29.6787H70.3719V28.7466H69.977C69.5328 28.7466 69.1873 28.5014 68.9898 28.0108C68.6937 27.3731 68.595 27.1769 68.595 27.0788L62.7212 12.4604H61.9314L55.9096 27.4712C55.5641 28.2561 55.3666 28.4523 55.3173 28.5014C55.1692 28.5995 54.9717 28.6485 54.725 28.6485H54.3301V29.5806H57.4891L57.5878 28.7957ZM61.7834 16.9735L63.4122 21.0941H60.1545L61.7834 16.9735Z" fill="white"/>
<path d="M86.8579 27.5687C87.7463 26.7348 88.4374 25.7046 88.9803 24.5273C89.5233 23.35 89.7701 22.1236 89.7701 20.8973C89.7701 19.6218 89.5233 18.4445 89.0297 17.4144C88.5361 16.3842 87.8451 15.5012 87.006 14.8145C86.1668 14.1277 85.1303 13.6372 83.995 13.3428C82.8598 13.0485 81.3296 12.8523 79.4046 12.8523L71.5564 12.8032V13.7353H71.9513C72.4943 13.7353 72.593 13.8824 72.593 13.8824C72.593 13.8824 72.7411 14.1277 72.7411 15.256L72.6917 27.0291C72.6917 28.0102 72.593 28.4517 72.5436 28.5989C72.4943 28.697 72.4449 28.8441 72.0994 28.8441H71.5071V29.7762L79.5033 29.8252C81.5271 29.8252 83.0078 29.6781 83.995 29.3837C84.9822 28.9913 85.9694 28.4026 86.8579 27.5687ZM79.3059 28.5989C78.2693 28.5989 77.3809 28.5007 76.7885 28.3536C76.2456 28.2064 75.8507 27.9611 75.6533 27.6668C75.4558 27.3725 75.3078 26.8329 75.3078 26.1461L75.3571 13.9805H77.4796C80.7867 13.9805 83.2546 14.7654 84.8341 16.2861C86.4136 17.8068 87.2527 19.5728 87.2034 21.6331C87.2034 23.35 86.6111 25.0179 85.4264 26.4895C84.2418 27.863 82.2181 28.5989 79.3059 28.5989Z" fill="white"/>
<path d="M89.3754 28.7467C89.2273 28.8448 89.0299 28.8938 88.7831 28.8938H88.3882V29.8259H91.5472V28.8938H91.1523C91.103 28.8938 91.0536 28.8938 91.0042 28.8938C91.0042 28.8448 91.0536 28.6486 91.2017 28.2561L93.5709 22.4186H97.8158L100.037 27.9127V27.9618C100.086 28.0599 100.086 28.109 100.136 28.158C100.333 28.5995 100.333 28.7957 100.333 28.8448C100.333 28.8448 100.284 28.8448 100.185 28.8448H99.7902V29.7768H104.331V28.8448H103.936C103.492 28.8448 103.147 28.5995 102.949 28.109C102.653 27.4712 102.554 27.275 102.554 27.1769L96.6806 12.5586H95.8908L89.869 27.5694C89.6222 28.4523 89.4247 28.6976 89.3754 28.7467ZM95.7427 17.1207L97.3716 21.2413H94.1139L95.7427 17.1207Z" fill="white"/>
<path d="M125.704 29.0407C125.26 28.9916 125.161 28.8935 125.161 28.8935C125.112 28.8445 125.013 28.6482 124.914 27.9124L123.236 15.6487C123.187 15.3544 123.187 15.1091 123.187 14.962C123.187 14.3243 123.483 14.0299 124.124 13.9809H124.47V13.0979H121.262L115.733 25.705L110.304 13.0488H106.602V13.9809H106.997C107.194 13.9809 107.441 14.0299 107.688 14.1771C107.786 14.2261 108.033 14.4224 108.379 15.2072L106.503 28.0596C106.454 28.3049 106.454 28.5011 106.404 28.6482C106.355 28.8445 106.306 28.8935 106.306 28.8935C106.306 28.8935 106.207 28.9426 105.812 28.9426H105.417V29.8746H108.675V28.9426H108.28C107.935 28.9426 107.935 28.8445 107.935 28.6973C107.935 28.5011 107.935 28.3049 107.984 28.1086L109.465 17.5128L114.796 29.9237H115.388L120.817 17.6109L122.249 28.1577C122.298 28.5501 122.298 28.6973 122.298 28.7464C122.298 28.8935 122.298 28.9426 122.249 28.9916C122.199 29.0407 122.101 29.0407 121.953 29.0407H121.558V29.9727H126V29.0897L125.704 29.0407Z" fill="white"/>
<path d="M75.5052 52.3905C74.9129 52.7339 74.37 52.881 73.827 52.881C73.136 52.881 72.3956 52.5376 71.6552 51.8018L70.2238 50.3792C70.9148 49.3 71.4084 47.6812 71.7046 45.6209C71.8526 44.5908 72.0007 44.2474 72.0501 44.1493C72.0501 44.1002 72.0994 44.0021 72.3956 44.0512L72.8398 44.1002V43.0701H68.5949V44.0512L69.3353 44.0021H69.4834C70.0263 44.0512 70.2238 44.1002 70.3225 44.1493C70.3718 44.1983 70.4212 44.2964 70.4212 44.6889C70.4212 45.2775 70.3225 46.1115 70.1251 47.2397C69.977 48.1227 69.6808 48.8585 69.3353 49.4962L62.4743 42.7267C60.7961 41.0588 60.4012 40.0777 60.4012 39.5381C60.4012 39.1457 60.5493 38.8023 60.8455 38.508C61.1416 38.2136 61.5365 38.0665 62.1288 38.0665C62.8199 38.0665 63.5602 38.2627 64.2513 38.7042C64.9917 39.1457 65.6827 39.6853 66.2257 40.3721L66.3244 40.5192H67.2622L66.3244 38.0174L66.2257 37.9684C65.6333 37.625 65.041 37.3797 64.4981 37.1835C63.9058 36.9873 63.2147 36.8892 62.4743 36.8892C61.1416 36.8892 60.1051 37.2325 59.4634 37.9684C58.8217 38.6551 58.4762 39.4891 58.4762 40.3721C58.4762 40.9117 58.5749 41.4513 58.8217 41.9418C58.9698 42.2852 59.1673 42.6286 59.4141 43.021C58.2294 43.3153 57.2916 43.904 56.6006 44.7379C55.7615 45.719 55.3666 46.8963 55.3666 48.2208C55.3666 49.7415 55.9589 51.1641 57.1435 52.3905C58.3281 53.6659 60.2038 54.3036 62.6224 54.3036C64.9917 54.3036 66.9661 53.6659 68.5456 52.2924L68.8417 52.5867V52.6357L68.9404 52.7339C70.0263 53.8131 71.211 54.3527 72.4943 54.3527C73.7283 54.3527 74.9129 54.0093 75.9495 53.2735L76.2456 53.0772L75.752 52.2924L75.5052 52.3905ZM66.1763 52.3905C65.6827 52.5867 64.9917 52.6848 64.1032 52.6848C62.3756 52.6848 60.8455 52.0471 59.4634 50.8207C58.1307 49.5943 57.4397 48.2699 57.4397 46.8963C57.4397 45.4737 58.3775 44.4927 60.2532 44.0512C60.4506 44.2474 60.6974 44.5417 61.0429 44.9341C61.7833 45.719 61.8327 45.7681 61.8327 45.7681L67.7064 51.4584C67.1635 51.8509 66.6205 52.1943 66.1763 52.3905Z" fill="white"/>
<path d="M93.867 51.458C93.7683 52.1938 93.6202 52.4391 93.5709 52.4882C93.4228 52.6353 93.2747 52.6844 93.1266 52.7334C92.9785 52.7825 92.5837 52.8315 91.4484 52.8315H88.5856C87.9932 52.8315 87.5984 52.7825 87.3022 52.7334C87.2035 52.6844 87.0061 52.6353 86.9073 52.341C86.8086 52.1448 86.7099 51.7523 86.7099 50.8694V46.2582H91.4484C91.8926 46.2582 91.9914 46.3073 92.0407 46.3073C92.0407 46.3073 92.0901 46.3563 92.0901 46.4544L92.1394 46.7488H93.0279V44.4432H92.0901V44.7866C92.0901 44.8847 92.0407 44.8847 92.0407 44.8847C92.0407 44.8847 91.8926 44.9337 91.3003 44.9337H86.7099V38.4585H91.6952C92.3862 38.4585 92.5343 38.5566 92.5343 38.5566C92.5343 38.5566 92.6824 38.7528 92.9785 39.832L93.0773 40.1264H93.9164V37.134L82.9092 37.085V38.017H83.3041C83.7977 38.017 83.9458 38.1151 83.9458 38.1642C83.9951 38.2623 84.0445 38.5566 84.0445 39.2434L83.9951 52.2919C83.9951 52.7825 83.8964 52.9297 83.8964 52.9297C83.7977 52.9787 83.6003 53.0768 83.2054 53.0768H82.8599V53.9598L94.7555 54.0089V51.0165H93.867V51.458Z" fill="white"/>
<path d="M110.156 38.655C110.353 38.3116 110.501 38.2626 110.501 38.2626C110.649 38.2135 110.797 38.2135 110.945 38.2135H111.34V37.2815H108.132V38.2135H108.527C108.625 38.2135 108.675 38.2135 108.675 38.2135C108.675 38.2626 108.625 38.3116 108.625 38.4097L103.936 49.9376L99.2965 38.3607C99.2472 38.2626 99.2472 38.2135 99.2472 38.1154C99.2472 38.1154 99.2965 38.1154 99.3459 38.1154L99.7408 38.1645V37.2324H95.1997V38.1645H95.5946C95.792 38.1645 95.9895 38.2135 96.1869 38.3607C96.2363 38.4097 96.5324 38.655 97.0754 39.9304L102.9 54.4016H103.64L109.859 39.0965C109.859 39.0965 109.958 38.9003 110.156 38.655Z" fill="white"/>
<path d="M123.68 52.587C123.384 51.9493 123.285 51.7531 123.285 51.6549L117.411 37.0366H116.622L110.6 52.0474C110.254 52.8323 110.057 53.0285 110.008 53.0775C109.859 53.1756 109.662 53.2247 109.415 53.2247H109.02V54.1567H112.179V53.2247H111.785C111.735 53.2247 111.686 53.2247 111.636 53.2247C111.636 53.1756 111.686 52.9794 111.834 52.587L114.203 46.7495H118.448L120.669 52.2436V52.2927C120.719 52.3908 120.719 52.4398 120.768 52.4889C120.965 52.9304 120.965 53.1266 120.965 53.1756C120.965 53.1756 120.916 53.1756 120.817 53.1756H120.422V54.1077H124.963V53.1756H124.569C124.272 53.3228 123.927 53.0775 123.68 52.587ZM114.746 45.5722L116.375 41.5006L118.004 45.6212L114.746 45.5722Z" fill="white"/>
<path d="M22.1478 17.3163C22.3946 17.4144 24.0235 17.5616 24.0235 17.5616C24.0235 17.5616 21.5555 8.43742 27.0344 1.81503C27.2318 1.56975 27.3305 1.27542 27.2812 0.981095C27.2318 0.686767 27.0837 0.392438 26.8863 0.245274C26.6395 0.0490548 26.3434 0 26.0472 0C25.751 0.0490548 25.4549 0.196219 25.3068 0.392438C22.8388 3.43383 21.7529 6.57334 21.3581 9.32041C20.5683 7.89782 19.5811 6.52428 18.2978 5.29792C13.1644 0.441493 5.66174 0 5.66174 0C5.66174 0 6.40214 7.45633 11.4368 12.3127C14.9413 15.6485 19.285 16.3352 22.1478 17.3163ZM16.3727 7.21105C18.5939 9.32041 19.8279 12.0675 20.5189 14.2259C18.2978 13.6372 15.4843 12.4599 13.2631 10.3996C11.0419 8.29026 9.80794 5.54319 9.11691 3.38478C11.3381 3.97344 14.1516 5.1017 16.3727 7.21105Z" fill="white"/>
<path d="M35.5929 18.4932C30.7063 18.4932 26.5107 21.3383 24.2896 25.508C22.0684 21.3383 17.8235 18.4932 12.9863 18.4932C5.82914 18.4932 -0.192716 24.625 0.00472143 32.1794C0.10344 36.3 4.0522 45.228 11.0612 52.6353C14.4177 56.1672 20.2421 54.5975 22.9569 53.8617C19.6498 51.507 11.4561 45.3261 11.4561 42.3828C11.4561 38.7037 14.467 35.6623 18.169 35.6623C20.8838 35.6623 23.2037 37.2321 24.2896 39.5377C25.3755 37.2811 27.6954 35.6623 30.3608 35.6623C34.0627 35.6623 37.123 38.6547 37.123 42.3828C37.123 45.3752 28.88 51.5561 25.5729 53.8617C28.1396 54.5975 34.1615 56.1672 37.7153 52.5862C44.675 45.4733 48.5744 37.0849 48.5744 32.1304C48.5251 24.625 42.75 18.4932 35.5929 18.4932Z" fill="white"/>
</svg>

<svg width="126" height="55" fill="none" xmlns="http://www.w3.org/2000/svg"><path d="M57.588 28.796h-.543c0-.05.05-.246.197-.638l2.37-5.838h4.244l2.222 5.495v.049c.049.098.049.147.098.196.198.441.198.638.198.687h-.543v.932h4.54v-.932h-.394c-.444 0-.79-.246-.987-.736-.296-.638-.395-.834-.395-.932L62.721 12.46h-.79L55.91 27.471c-.346.785-.543.981-.593 1.03-.148.098-.345.147-.592.147h-.395v.933h3.16l.098-.785zm4.195-11.822l1.63 4.12h-3.258l1.628-4.12zm25.075 10.595c.888-.834 1.58-1.864 2.122-3.042a8.603 8.603 0 0 0 .79-3.63c0-1.275-.247-2.452-.74-3.483a7.57 7.57 0 0 0-2.024-2.6c-.84-.686-1.876-1.177-3.011-1.471-1.135-.294-2.665-.49-4.59-.49l-7.849-.05v.932h.395c.543 0 .642.147.642.147s.148.246.148 1.374l-.05 11.773c0 .981-.098 1.423-.147 1.57-.05.098-.1.245-.445.245h-.592v.932l7.996.05c2.024 0 3.505-.148 4.492-.442a9.066 9.066 0 0 0 2.863-1.815zm-7.552 1.03c-1.037 0-1.925-.098-2.517-.245-.543-.148-.938-.393-1.136-.687-.197-.295-.345-.834-.345-1.52l.05-12.166h2.122c3.307 0 5.775.784 7.354 2.305 1.58 1.52 2.419 3.287 2.37 5.347 0 1.717-.593 3.385-1.778 4.857-1.184 1.373-3.208 2.109-6.12 2.109zm10.069.148c-.148.098-.345.147-.592.147h-.395v.932h3.16v-.932h-.544c0-.05.05-.245.198-.638l2.369-5.837h4.245l2.221 5.494v.049c.049.098.049.147.099.196.197.441.197.638.197.687h-.543v.932h4.541v-.932h-.395c-.444 0-.789-.245-.987-.736-.296-.638-.395-.834-.395-.932l-5.873-14.618h-.79l-6.022 15.01c-.247.883-.444 1.129-.494 1.178zm6.368-11.626l1.629 4.12h-3.258l1.629-4.12zm29.961 11.919c-.444-.048-.543-.146-.543-.146-.049-.05-.148-.246-.247-.982l-1.678-12.263c-.049-.295-.049-.54-.049-.687 0-.638.296-.932.937-.981h.346v-.883h-3.208l-5.529 12.607-5.429-12.656h-3.702v.932h.395c.197 0 .444.049.691.196.098.05.345.245.691 1.03l-1.876 12.853c-.049.245-.049.441-.099.588-.049.197-.098.245-.098.245s-.099.05-.494.05h-.395v.932h3.258v-.932h-.395c-.345 0-.345-.099-.345-.246 0-.196 0-.392.049-.588l1.481-10.596 5.331 12.41h.592l5.429-12.312 1.432 10.547c.049.392.049.54.049.588 0 .148 0 .197-.049.246-.05.049-.148.049-.296.049h-.395v.932H126v-.883l-.296-.05zM75.505 52.39c-.592.344-1.135.491-1.678.491-.691 0-1.431-.343-2.172-1.08l-1.431-1.422c.69-1.079 1.184-2.698 1.48-4.758.149-1.03.297-1.374.346-1.472 0-.049.05-.147.346-.098l.444.05v-1.03h-4.245v.98l.74-.049h.148c.543.05.74.098.84.147.049.05.098.147.098.54 0 .589-.099 1.422-.296 2.55a7.157 7.157 0 0 1-.79 2.257l-6.86-6.77c-1.679-1.667-2.074-2.648-2.074-3.188 0-.392.148-.736.444-1.03.297-.294.691-.442 1.284-.442.69 0 1.431.197 2.122.638.74.442 1.432.981 1.975 1.668l.098.147h.938l-.938-2.502-.098-.049a10.574 10.574 0 0 0-1.728-.785c-.592-.196-1.283-.294-2.024-.294-1.332 0-2.369.343-3.01 1.08-.642.686-.988 1.52-.988 2.403 0 .54.099 1.08.346 1.57.148.343.345.687.592 1.079-1.185.294-2.122.883-2.813 1.717-.84.981-1.234 2.158-1.234 3.483 0 1.52.592 2.943 1.777 4.17 1.184 1.275 3.06 1.913 5.478 1.913 2.37 0 4.344-.638 5.924-2.012l.296.295v.049l.098.098c1.086 1.08 2.271 1.619 3.554 1.619 1.234 0 2.419-.344 3.456-1.08l.296-.196-.494-.785-.247.099zm-9.329 0c-.493.197-1.184.295-2.073.295-1.727 0-3.257-.638-4.64-1.864-1.332-1.227-2.023-2.551-2.023-3.925 0-1.422.938-2.403 2.813-2.845.198.196.444.49.79.883.74.785.79.834.79.834l5.873 5.69c-.543.393-1.085.736-1.53.933zm27.691-.932c-.099.736-.247.981-.296 1.03-.148.147-.296.196-.444.245-.148.05-.543.099-1.679.099h-2.862c-.593 0-.988-.05-1.284-.099-.099-.049-.296-.098-.395-.392-.098-.196-.197-.589-.197-1.472v-4.61h4.738c.445 0 .543.048.593.048 0 0 .05.05.05.147l.048.295h.889v-2.306h-.938v.344c0 .098-.05.098-.05.098s-.147.049-.74.049h-4.59v-6.475h4.985c.691 0 .84.098.84.098s.147.196.444 1.275l.098.294h.84v-2.992l-11.008-.049v.932h.395c.494 0 .642.098.642.147.05.098.099.393.099 1.08l-.05 13.048c0 .49-.099.638-.099.638-.098.049-.296.147-.69.147h-.346v.883l11.895.049v-2.992h-.888v.441zm16.289-12.803c.197-.343.345-.392.345-.392.148-.05.296-.05.444-.05h.395v-.931h-3.208v.932h.543c0 .049-.05.098-.05.196l-4.689 11.528-4.64-11.577c-.049-.098-.049-.147-.049-.246h.099l.395.05v-.933H95.2v.932h.395c.197 0 .395.05.592.197.05.049.345.294.888 1.57L102.9 54.4h.74l6.219-15.305s.099-.196.297-.441zm13.524 13.932c-.296-.638-.395-.834-.395-.932l-5.874-14.618h-.789l-6.022 15.01c-.346.785-.543.982-.592 1.03-.149.099-.346.148-.593.148h-.395v.932h3.159v-.932h-.543c0-.05.05-.246.198-.638l2.369-5.838h4.245l2.221 5.495v.049c.05.098.05.147.099.196.197.441.197.638.197.687h-.543v.932h4.541v-.932h-.394c-.297.147-.642-.099-.889-.589zm-8.934-7.015l1.629-4.071 1.629 4.12-3.258-.049zM22.148 17.316c.247.098 1.875.246 1.875.246s-2.468-9.125 3.011-15.747c.198-.245.297-.54.247-.834-.05-.294-.197-.589-.395-.736C26.64.05 26.343 0 26.047 0c-.296.05-.592.196-.74.392-2.468 3.042-3.554 6.181-3.949 8.928-.79-1.422-1.777-2.796-3.06-4.022C13.164.44 5.662 0 5.662 0s.74 7.456 5.775 12.313c3.504 3.335 7.848 4.022 10.71 5.003zM16.373 7.211c2.22 2.11 3.455 4.857 4.146 7.015-2.221-.589-5.035-1.766-7.256-3.826-2.221-2.11-3.455-4.857-4.146-7.015 2.221.588 5.035 1.717 7.256 3.826zm19.22 11.282c-4.887 0-9.082 2.845-11.303 7.015-2.222-4.17-6.466-7.015-11.304-7.015C5.83 18.493-.193 24.625.005 32.18.103 36.3 4.052 45.228 11.06 52.635c3.357 3.532 9.181 1.962 11.896 1.227-3.307-2.355-11.5-8.536-11.5-11.48 0-3.678 3.01-6.72 6.712-6.72a6.732 6.732 0 0 1 6.12 3.876c1.086-2.257 3.406-3.876 6.072-3.876 3.702 0 6.762 2.993 6.762 6.72 0 2.993-8.243 9.174-11.55 11.48 2.567.735 8.588 2.305 12.142-1.276 6.96-7.113 10.86-15.501 10.86-20.456-.05-7.505-5.825-13.637-12.982-13.637z" fill="#fff"/></svg>
